libs/ui/packages/crypto-icons/src/svg/SOX.svg

<svg width="24" height="24" viewBox="0 0 24 24" fill="none" xmlns="http://www.w3.org/2000/svg">
<path fill-rule="evenodd" clip-rule="evenodd" d="M3.13721 12.0125C3.13721 7.04741 7.16216 3.02246 12.1272 3.02246C17.0923 3.02246 21.1172 7.04741 21.1172 12.0125C21.1172 16.9775 17.0923 21.0025 12.1272 21.0025C7.16216 21.0025 3.13721 16.9775 3.13721 12.0125ZM12.1272 4.02246C7.71445 4.02246 4.13721 7.5997 4.13721 12.0125C4.13721 16.4252 7.71445 20.0025 12.1272 20.0025C16.54 20.0025 20.1172 16.4252 20.1172 12.0125C20.1172 7.5997 16.54 4.02246 12.1272 4.02246Z" fill="white"/>
<path d="M8.95686 10.2031L6.79297 13.1939C8.02837 13.1939 9.8059 14.1374 10.2407 15.4137L11.7753 13.3076C12.0162 12.9613 12.2263 12.6898 12.7383 12.5837L14.6421 12.2025C14.7806 11.2258 14.6958 9.36637 13.8066 8.34814C13.4889 8.40546 12.5688 8.55226 11.2685 8.70231C9.83975 8.86717 9.38703 9.64806 8.95686 10.2031Z" fill="white"/>
<path d="M14.6421 8.19066C15.5312 9.20889 15.616 11.0683 15.4775 12.045L16.9652 11.7303C17.1038 10.7536 17.0189 8.8942 16.1298 7.87598L14.6421 8.19066Z" fill="white"/>
<path d="M6.42042 14.0782C7.70898 13.8698 9.15311 14.6804 9.64655 16.2108C7.05501 17.7005 6.1574 14.9001 6.42042 14.0782Z" fill="white"/>
</svg>

<svg xmlns="http://www.w3.org/2000/svg" width="24" height="24" viewBox="0 0 24 24" fill="none"><path fill="#fff" fill-rule="evenodd" d="M3.137 12.013a8.99 8.99 0 1 1 17.98 0 8.99 8.99 0 0 1-17.98 0m8.99-7.99a7.99 7.99 0 1 0 0 15.98 7.99 7.99 0 0 0 0-15.98" clip-rule="evenodd"/><path fill="#fff" d="m8.957 10.203-2.164 2.99c1.235 0 3.013.944 3.448 2.22l1.534-2.105c.241-.347.451-.618.963-.724l1.904-.381c.139-.977.054-2.837-.835-3.855-.318.057-1.238.204-2.539.354-1.428.165-1.881.946-2.311 1.501m5.685-2.013c.89 1.019.974 2.878.835 3.855l1.488-.315c.139-.976.054-2.836-.835-3.854zM6.42 14.078c1.289-.208 2.733.602 3.227 2.133-2.592 1.49-3.49-1.31-3.227-2.133"/></svg>
